icons/document-percent-outline.svg

<svg xmlns="http://www.w3.org/2000/svg" width="24" height="24" viewBox="0 0 24 24">
  <path d="M12,1 L12,8 C12,8.55228475 12.4477153,9 13,9 L20,9 L20,21 C20,22.1045695 19.1045695,23 18,23 L6,23 C4.8954305,23 4,22.1045695 4,21 L4,3 C4,1.8954305 4.8954305,1 6,1 L12,1 Z M10,3 L6,3 L6,21 L18,21 L18,11 L13,11 C11.4023191,11 10.0963391,9.75108004 10.0050927,8.17627279 L10,8 L10,3 Z M15.7071068,18.2928932 C16.0976311,18.6834175 16.0976311,19.3165825 15.7071068,19.7071068 C15.3165825,20.0976311 14.6834175,20.0976311 14.2928932,19.7071068 C13.9023689,19.3165825 13.9023689,18.6834175 14.2928932,18.2928932 C14.6834175,17.9023689 15.3165825,17.9023689 15.7071068,18.2928932 Z M15.7071068,12.2928932 C16.0675907,12.6533772 16.0953203,13.2206082 15.7902954,13.6128994 L15.7071068,13.7071068 L9.70710678,19.7071068 C9.31658249,20.0976311 8.68341751,20.0976311 8.29289322,19.7071068 C7.93240926,19.3466228 7.90467972,18.7793918 8.20970461,18.3871006 L8.29289322,18.2928932 L14.2928932,12.2928932 C14.6834175,11.9023689 15.3165825,11.9023689 15.7071068,12.2928932 Z M9.70710678,12.2928932 C10.0976311,12.6834175 10.0976311,13.3165825 9.70710678,13.7071068 C9.31658249,14.0976311 8.68341751,14.0976311 8.29289322,13.7071068 C7.90236893,13.3165825 7.90236893,12.6834175 8.29289322,12.2928932 C8.68341751,11.9023689 9.31658249,11.9023689 9.70710678,12.2928932 Z M14,1 L20,7 L15,7 C14.4871642,7 14.0644928,6.61395981 14.0067277,6.11662113 L14,6 L14,1 Z"/>
</svg>

<svg xmlns="http://www.w3.org/2000/svg" viewBox="0 0 24 24">
  <path d="M12 1v7a1 1 0 0 0 1 1h7v12a2 2 0 0 1-2 2H6a2 2 0 0 1-2-2V3c0-1.1.9-2 2-2h6zm-2 2H6v18h12V11h-5a3 3 0 0 1-3-2.82V3zm5.7 15.3a1 1 0 1 1-1.4 1.4 1 1 0 0 1 1.4-1.4zm0-6a1 1 0 0 1 .09 1.31l-.08.1-6 6a1 1 0 0 1-1.5-1.32l.08-.1 6-6a1 1 0 0 1 1.42 0zm-6 0a1 1 0 1 1-1.4 1.4 1 1 0 0 1 1.4-1.4zM14 1l6 6h-5a1 1 0 0 1-1-.88V1z"/>
</svg>
